findly-builder/apps/searchassist/src/assets/images/markup/indent.svg

<?xml version="1.0" encoding="UTF-8"?>
<svg width="12px" height="12px" viewBox="0 0 12 12" version="1.1" xmlns="http://www.w3.org/2000/svg" xmlns:xlink="http://www.w3.org/1999/xlink">
    <title>icons8-indent</title>
    <g id="Page-1" stroke="none" stroke-width="1" fill="none" fill-rule="evenodd">
        <g id="Custom-Preset-Copy" transform="translate(-699.000000, -95.000000)" fill="#FFFFFF" fill-rule="nonzero">
            <g id="icons8-indent" transform="translate(699.000000, 95.000000)">
                <path d="M0.552708604,7.20461308e-05 C0.355882714,-0.0031240064 0.173951625,0.100213025 0.0750067512,0.270665524 C-0.0250022504,0.44005249 -0.0250022504,0.650987594 0.0750067512,0.82037456 C0.173951625,0.990827058 0.355882714,1.09416409 0.552708604,1.09096804 L11.4472914,1.09096804 C11.6441173,1.09416409 11.8260484,0.990827058 11.9249932,0.82037456 C12.0250023,0.650987594 12.0250023,0.44005249 11.9249932,0.270665524 C11.8260484,0.100213025 11.6441173,-0.0031240064 11.4472914,7.20461308e-05 L0.552708604,7.20461308e-05 Z M0.552708604,2.72731203 C0.355882714,2.72411597 0.173951625,2.827453 0.0750067512,2.9979055 C-0.0250022504,3.16729247 -0.0250022504,3.37822757 0.0750067512,3.54761454 C0.173951625,3.71806704 0.355882714,3.82140407 0.552708604,3.81820802 L7.08945828,3.81820802 C7.28628417,3.82140407 7.46821526,3.71806704 7.56716013,3.54761454 C7.66716913,3.37822757 7.66716913,3.16729247 7.56716013,2.9979055 C7.46821526,2.827453 7.28628417,2.72411597 7.08945828,2.72731203 L0.552708604,2.72731203 Z M11.9920205,2.72731203 L8.7236457,6 L11.9920205,9.27268797 L11.9920205,2.72731203 Z M0.552708604,5.454552 C0.355882714,5.45135595 0.173951625,5.55469298 0.0750067512,5.72514548 C-0.0250022504,5.89453245 -0.0250022504,6.10546755 0.0750067512,6.27485452 C0.173951625,6.44530702 0.355882714,6.54864405 0.552708604,6.545448 L7.08945828,6.545448 C7.28628417,6.54864405 7.46821526,6.44530702 7.56716013,6.27485452 C7.66716913,6.10546755 7.66716913,5.89453245 7.56716013,5.72514548 C7.46821526,5.55469298 7.28628417,5.45135595 7.08945828,5.454552 L0.552708604,5.454552 Z M0.552708604,8.18179198 C0.355882714,8.17859593 0.173951625,8.28193296 0.0750067512,8.45238546 C-0.0250022504,8.62177243 -0.0250022504,8.83270753 0.0750067512,9.0020945 C0.173951625,9.172547 0.355882714,9.27588403 0.552708604,9.27268797 L7.08945828,9.27268797 C7.28628417,9.27588403 7.46821526,9.172547 7.56716013,9.0020945 C7.66716913,8.83270753 7.66716913,8.62177243 7.56716013,8.45238546 C7.46821526,8.28193296 7.28628417,8.17859593 7.08945828,8.18179198 L0.552708604,8.18179198 Z M0.552708604,10.909032 C0.355882714,10.9058359 0.173951625,11.0091729 0.0750067512,11.1796254 C-0.0250022504,11.3490124 -0.0250022504,11.5599475 0.0750067512,11.7293345 C0.173951625,11.899787 0.355882714,12.003124 0.552708604,11.999928 L11.4472914,11.999928 C11.6441173,12.003124 11.8260484,11.899787 11.9249932,11.7293345 C12.0250023,11.5599475 12.0250023,11.3490124 11.9249932,11.1796254 C11.8260484,11.0091729 11.6441173,10.9058359 11.4472914,10.909032 L0.552708604,10.909032 Z" id="Shape"></path>
            </g>
        </g>
    </g>
</svg>

<svg width="12" height="12" xmlns="http://www.w3.org/2000/svg"><path d="M.553 0a.541.541 0 0 0-.478.27c-.1.17-.1.381 0 .55.099.17.28.274.478.271h10.894c.197.003.379-.1.478-.27.1-.17.1-.38 0-.55a.541.541 0 0 0-.478-.27H.553Zm0 2.727a.541.541 0 0 0-.478.27c-.1.17-.1.381 0 .55a.54.54 0 0 0 .478.271h6.536c.197.003.38-.1.478-.27.1-.17.1-.38 0-.55a.541.541 0 0 0-.478-.27H.553Zm11.439 0L8.724 6l3.268 3.273V2.727ZM.552 5.455a.541.541 0 0 0-.477.27c-.1.17-.1.38 0 .55a.54.54 0 0 0 .478.27h6.536a.54.54 0 0 0 .478-.27c.1-.17.1-.38 0-.55a.541.541 0 0 0-.478-.27H.553Zm0 2.727a.541.541 0 0 0-.477.27c-.1.17-.1.38 0 .55a.54.54 0 0 0 .478.27h6.536a.54.54 0 0 0 .478-.27c.1-.17.1-.38 0-.55a.541.541 0 0 0-.478-.27H.553Zm0 2.727a.541.541 0 0 0-.477.27c-.1.17-.1.38 0 .55a.54.54 0 0 0 .478.27h10.894a.54.54 0 0 0 .478-.27c.1-.17.1-.38 0-.55a.541.541 0 0 0-.478-.27H.553Z" fill="#FFF"/></svg>
